X: 6
T: Missa Ave regina celorum / Kyrie
N: Derived from Obr1002a-Missa_Ave_regina_celorum-Kyrie.krn
C: Jacob Obrecht
%%abc-version 2.0
%%abcx-abcm2ps-target-version 5.9.1 (29 Sep 2008)
%%abc-creator hum2abc beta
%%abcx-conversion-date 2019/02/17 07:23:44
%%abc-edited-by Jesse Rodin
%%abc-edited-by Jesse Rodin 8/26/2013
%%abcx-initial-encoding-date 2013/08/26/
%%humdrum-veritas 309702654
%%humdrum-veritas-data 2224470720
%%linebreak <none>
%%barnumbers 0
L: 1/4
M: 3/1
Q: 1/2=120
%%staves [1 2 3 4]
V: 1 clef=treble
V: 2 clef=treble-8
V: 3 clef=treble-8
V: 4 clef=bass
K: F
[V:1] F12 | 
[V:2] F12 | 
[V:3] c12- :
[V:4] F,,12 | 
[V:1] E8E4 | 
[V:2] G12 | 
[V:3] c12 | 
[V:4] C,8C,4 | 
[V:1] F4F3GA2F2- | 
[V:2] F6D4d2- | 
[V:3] A12 :
[V:4] D,4D,3E,F,2D,2- | 
[V:1] F2A3GFEF4 | 
[V:2] d2c2A6B2 | 
[V:3] F12 | 
[V:4] D,2F,3E,D,C,D,4 | 
[V:1] E6G4FE | 
[V:2] c8c4 | 
[V:3] G12 :
[V:4] C,8C,4 | 
[V:1] D4z4A4- | 
[V:2] F4E2F3GAB | 
[V:3] B4A8 | 
[V:4] B,,4C,2D,3E,F,2- | 
[V:1] A2B3AFGA2B2- | 
[V:2] c2d3cA4d2- | 
[V:3] F8z4 :
[V:4] F,2B,,3C,D,E,F,2D,2 | 
[V:1] B2AGF2A4G2 | 
[V:2] d2^c2d2D2G2E2 | 
[V:3] G4A4B4 | 
[V:4] E,4D,4z4 | 
[V:1] A2c3BA2E2A2 | 
[V:2] E4F2E2A3G/F/ | 
[V:3] c12- :
[V:4] A,,8A,,4 | 
[V:1] G2E3CF4E2 | 
[V:2] E4A4G2A2- | 
[V:3] c12 | 
[V:4] C,3B,,A,,2F,,2C,4 | 
[V:1] F4z4z2A2- | 
[V:2] A2GFG4F2f2- | 
[V:3] [M:3/1]c8A4 | 
[V:4] F,,2F,4E,2F,2D,2- | 
[V:1] A2B3AGFG2A2- | 
[V:2] fedcB3cd2c2- | 
[V:3] F4G4B2A2 | 
[V:4] D,C,B,,A,,G,,4z2F,,2- | 
[V:1] AGF2E2G2F2ED | 
[V:2] cBA2Gc2Bd4 | 
[V:3] F4z2G2A2B2 | 
[V:4] F,,G,,A,,B,,C,D,E,2D,4 | 
[V:1] E12 ||  
[V:2] G12 ||  
[V:3] c12 ||  
[V:4] C,12 ||  
[V:1]  [K:F] [K:clef=treble][M:2/1]A6B2 | 
[V:2]  [K:F] [K:clef=treble-8][M:2/1]z8 | 
[V:3]  [K:F] [K:clef=treble-8][M:2/1]f8 :
[V:4]  [K:F] [K:clef=bass][M:2/1]z8 | 
[V:1] c4d4- | 
[V:2] z8 | 
[V:3] f8 :
[V:4] z8 | 
[V:1] d2c2c4- | 
[V:2] z8 | 
[V:3] e8 | 
[V:4] z8 | 
[V:1] c4=B4 | 
[V:2] f8 | 
[V:3] d8 :
[V:4] z8 | 
[V:1] c4z4 | 
[V:2] e6d2 | 
[V:3] c6B2 :
[V:4] z8 | 
[V:1] z8 | 
[V:2] f4e4 | 
[V:3] A4G4 | 
[V:4] z8 | 
[V:1] z8 | 
[V:2] d4g4- | 
[V:3] F4E4 :
[V:4] z8 | 
[V:1] z8 | 
[V:2] g2f2f4- | 
[V:3] A8 :
[V:4] z8 | 
[V:1] z8 | 
[V:2] f4e4 | 
[V:3] G8 | 
[V:4] z8 | 
[V:1] z8 | 
[V:2] f6ed | 
[V:3] F8- :
[V:4] F,,6G,,2 | 
[V:1] z8 | 
[V:2] c4d4 | 
[V:3] F8- :
[V:4] A,,4B,,4 | 
[V:1] z8 | 
[V:2] c2d4cB | 
[V:3] F8 | 
[V:4] A,,2B,,4A,,G,, | 
[V:1] z8 | 
[V:2] c2A2G4 | 
[V:3] z4c4- :
[V:4] F,,2F,4E,2 | 
[V:1] z8 | 
[V:2] F2f2e2d2- | 
[V:3] c4B4 :
[V:4] F,4G,4 | 
[V:1] z8 | 
[V:2] d2^c=B^c4 | 
[V:3] G8 | 
[V:4] E,8 | 
[V:1] z4A4- | 
[V:2] d8- | 
[V:3] F8 :
[V:4] D,8 | 
[V:1] A2G2G4- | 
[V:2] d8 | 
[V:3] B8 :
[V:4] z8 | 
[V:1] G4^F4 | 
[V:2] c6BA | 
[V:3] A8 | 
[V:4] z8 | 
[V:1] G4F2E2- | 
[V:2] B4A2G2- | 
[V:3] G4c4- :
[V:4] G,,4A,,2C,2- | 
[V:1] E2F2D4 | 
[V:2] G2F2G2B2 | 
[V:3] c4B4 :
[V:4] C,2B,,A,,G,,4 | 
[V:1] E8 | 
[V:2] A4G4 | 
[V:3] c8 | 
[V:4] z4C,4- | 
[V:1] z8 | 
[V:2] c6c2- | 
[V:3] G4A4 :
[V:4] C,4F,4 | 
[V:1] z4E4 | 
[V:2] c2BAG4 | 
[V:3] G4c4- :
[V:4] C,4E,4 | 
[V:1] F6ED | 
[V:2] z8 | 
[V:3] c4=B4 | 
[V:4] D,8 | 
[V:1] E4F4- | 
[V:2] G4A4 | 
[V:3] [M:2/1]c4F4 | 
[V:4] C,4z2F,2- | 
[V:1] F2G2A4 | 
[V:2] F2c4d2 | 
[V:3] A2G2F4 | 
[V:4] F,2E,2F,4 | 
[V:1] G2E2F4 | 
[V:2] e2c4d2 | 
[V:3] z2c2A2B2 | 
[V:4] C,4z4 | 
[V:1] E4z4 | 
[V:2] G2A4GF | 
[V:3] c8 | 
[V:4] C,4F,4 | 
[V:1] E4F2D2 | 
[V:2] c4d4 | 
[V:3] z2G2A2B2 | 
[V:4] E,4D,4 | 
[V:1] E2G3FED | 
[V:2] z2_e3dcB | 
[V:3] c4z2G2 | 
[V:4] C,8 | 
[V:1] C2D2E4 | 
[V:2] c2B2G2AB | 
[V:3] A2B2c3B | 
[V:4] z4C,4- | 
[V:1] z2F3GA2 | 
[V:2] c2A3Bc2 | 
[V:3] G2F2A4 | 
[V:4] C,2D,3C,A,,2 | 
[V:1] D2G3FD2 | 
[V:2] d2_e3dB2 | 
[V:3] G4z2B2 | 
[V:4] B,,2C,2G,,4 | 
[V:1] z2A3GF2 | 
[V:2] c2A3Bc2- | 
[V:3] A2c3BA2 | 
[V:4] A,,2F,,3G,,A,,B,, | 
[V:1] E2G2F2B2 | 
[V:2] cBG2A2d2 | 
[V:3] G4z2F2 | 
[V:4] C,2_E,2D,2B,,2 | 
[V:1] A2F4E2 | 
[V:2] c2B2c4 | 
[V:3] E2F2G4 | 
[V:4] C,2D,2C,4 | 
[V:1] F8 ||  
[V:2] c8 ||  
[V:3] F8 ||  
[V:4] F,,8 ||  
[V:1]  [K:F] [K:clef=treble][M:2/1]F6G2A2B2 | 
[V:2]  [K:F] [K:clef=treble-8][M:2/1]A6G2F4 | 
[V:3]  [K:F] [K:clef=treble-8][M:2/1]c8f4 | 
[V:4]  [K:F] [K:clef=bass][M:2/1]F,6E,2D,2B,,2 | 
[V:1] G2A2B3GA2c2- | 
[V:2] z2f4e2f2c2 | 
[V:3] e2c2B4c4 | 
[V:4] C,2A,,2G,,4F,,4 | 
[V:1] c2B2c2A4D2 | 
[V:2] d4c3BAGF2 | 
[V:3] z2G2A2c4B2 | 
[V:4] z4F,,3G,,A,,2B,,2 | 
[V:1] E2F2z2F2F3G | 
[V:2] z2f2e2c2d4 | 
[V:3] A2F2G2A2B4 | 
[V:4] C,2D,2E,2F,2B,,C,D,E, | 
[V:1] A2F2G2A2B4 | 
[V:2] c2d2e4f4 | 
[V:3] A4z4d4 | 
[V:4] F,2D,2C,4B,,4 | 
[V:1] A2B3AA4G2 | 
[V:2] f4e2f2d4 | 
[V:3] d4c2A2B4 | 
[V:4] z2B,,2C,2D,2G,,4 | 
[V:1] A4z4z2D2- | 
[V:2] c2d4c2d2f2- | 
[V:3] A4z2G2F4 | 
[V:4] z2D,2_E,4D,2B,,2- | 
[V:1] D2F3GA3GE2- | 
[V:2] fed4c2d2G2 | 
[V:3] B2A2F4A2c2- | 
[V:4] B,,C,D,3E,F,3E,C,2- | 
[V:1] E2G3FF4E2 | 
[V:2] G4z4c4 | 
[V:3] c2B2A4G4 | 
[V:4] C,D,E,2F,4C,4 | 
[V:1] F3GAGA4G2 | 
[V:2] A2c3BAGF2z2 | 
[V:3] F8z2c2- | 
[V:4] F,,4z2F,4E,2 | 
[V:1] A2B2A2G4F2- | 
[V:2] F3GABcGB4 | 
[V:3] c2B2c4d4 | 
[V:4] F,2D,2C,4B,,4 | 
[V:1] F2E2F3GABc2- | 
[V:2] G4F6A2- | 
[V:3] c8f4 | 
[V:4] C,4F,,4z2F,,2 | 
[V:1] cBG2z2G2A3B | 
[V:2] ABc3de2f3e | 
[V:3] e6c4f2 | 
[V:4] C,8F,3G, | 
[V:1] c2d2B2c2d2cB | 
[V:2] c2g3ff4e2 | 
[V:3] e2d4c4B2 | 
[V:4] A,2B,3F,A,2G,4 | 
[V:1] A2c3BAGF2G2 | 
[V:2] f6edc4 | 
[V:3] c4F4A2G2 | 
[V:4] F,4z2F,4E,2 | 
[V:1] A4z2A4G2 | 
[V:2] z2f4e2f2d2 | 
[V:3] F4z2c2A2B2 | 
[V:4] F,2D,4C,2D,2B,,2 | 
[V:1] A2c3BAGF2D2 | 
[V:2] e2E2F4D4 | 
[V:3] c8z2G2 | 
[V:4] A,,4z2A,,2B,,4 | 
[V:1] C3DE2F4ED | 
[V:2] E4C4D3E | 
[V:3] A3Bc4z2G2 | 
[V:4] A,,4z2A,,2B,,4 | 
[V:1] C2z2C3DE2F2- | 
[V:2] F2G2E4z4 | 
[V:3] A2B2c3BG2F2 | 
[V:4] A,,2G,,2A,,3B,,C,2D,2 | 
[V:1] FGA2B3AG2F2 | 
[V:2] e4g3fe2d2 | 
[V:3] A4G4z2B2 | 
[V:4] A,,4z4z4 | 
[V:1] c3B/A/G2F2B3A | 
[V:2] e6f2g3f | 
[V:3] A2c3BA2G4 | 
[V:4] A,,3B,,C,2D,2G,,2B,,2- | 
[V:1] F2A2G2F4E2 | 
[V:2] d2c4c3BG2 | 
[V:3] z2F2E2F2G4 | 
[V:4] B,,A,,F,,2z2F,,2C,4 | 
[V:1] F12- | 
[V:2] A12 | 
[V:3] F12- | 
[V:4] F,,12- | 
[V:1] F12 |]  
[V:2] c12 |]  
[V:3] F12 |]  
[V:4] F,,12 |]  



